theme/assets/isologo_blanco.svg

<?xml version="1.0" encoding="UTF-8" standalone="no"?>
<svg
   width="38"
   height="32"
   viewBox="0 0 38 32"
   fill="none"
   version="1.1"
   id="svg5"
   sodipodi:docname="isologo_blanco.svg"
   inkscape:version="1.3.2 (091e20ef0f, 2023-11-25)"
   xmlns:inkscape="http://www.inkscape.org/namespaces/inkscape"
   xmlns:sodipodi="http://sodipodi.sourceforge.net/DTD/sodipodi-0.dtd"
   xmlns="http://www.w3.org/2000/svg"
   xmlns:svg="http://www.w3.org/2000/svg">
  <defs
     id="defs5" />
  <sodipodi:namedview
     id="namedview5"
     pagecolor="#ffffff"
     bordercolor="#000000"
     borderopacity="0.25"
     inkscape:showpageshadow="2"
     inkscape:pageopacity="0.0"
     inkscape:pagecheckerboard="0"
     inkscape:deskcolor="#d1d1d1"
     inkscape:zoom="10.5"
     inkscape:cx="19"
     inkscape:cy="15.952381"
     inkscape:window-width="1920"
     inkscape:window-height="992"
     inkscape:window-x="0"
     inkscape:window-y="40"
     inkscape:window-maximized="1"
     inkscape:current-layer="svg5" />
  <path
     d="M22.9157 24.2792H9.36309C9.14394 23.8916 8.7406 23.63 8.27431 23.63C7.80803 23.63 7.40935 23.8916 7.18787 24.2792H5.72839C5.52089 24.2792 5.35303 24.4536 5.35303 24.6717V25.224C5.35303 25.4396 5.51856 25.6165 5.72839 25.6165H7.18787C7.40935 26.0041 7.81036 26.2657 8.27431 26.2657C8.73827 26.2657 9.14394 26.0041 9.36309 25.6165H22.9157C23.1232 25.6165 23.2911 25.4421 23.2911 25.224V24.6717C23.2911 24.4561 23.1255 24.2792 22.9157 24.2792Z"
     fill="#1C1C1C"
     id="path1"
     style="fill:#f8f8f8;fill-opacity:1" />
  <path
     d="M17.3622 21.7718C17.3855 21.7864 17.4112 21.7961 17.4392 21.7961C17.4625 21.7961 17.4928 21.7864 17.5138 21.7718L21.687 19.2693C21.7337 19.2402 21.7616 19.1869 21.7616 19.1312C21.7616 19.0755 21.7337 19.0222 21.687 18.9931L17.5138 16.4882C17.4671 16.4615 17.4065 16.4615 17.3599 16.4882C17.3133 16.5172 17.283 16.5705 17.283 16.6287V21.6337C17.283 21.6943 17.3133 21.7452 17.3599 21.7742"
     fill="#1C1C1C"
     id="path2"
     style="fill:#f8f8f8;fill-opacity:1" />
  <path
     d="M37.606 8.37732C37.606 8.30949 37.585 8.24166 37.5384 8.18594C37.4358 8.0745 37.2703 8.06481 37.156 8.16656L33.8547 11.282H31.901V9.31244C31.901 9.1574 31.7798 9.03384 31.6329 9.03384H24.5593V3.91491C24.5593 3.91491 24.5593 3.89068 24.5593 3.87615C24.5477 3.53214 24.501 3.22689 24.4148 2.95314C24.3215 2.66485 24.1816 2.41048 23.9904 2.20456C23.8016 1.9938 23.5638 1.83633 23.2794 1.72489C23.0112 1.61829 22.6965 1.56015 22.3351 1.54077H18.761C18.6491 1.13378 18.423 0.770387 18.1246 0.503902C17.7748 0.193811 17.3156 0.00242615 16.819 0.00242615H5.80527C5.24806 0.00242615 4.74447 0.237417 4.37843 0.617764C4.01473 0.998111 3.78392 1.52139 3.78392 2.10039C3.78392 2.67939 4.01473 3.20509 4.37843 3.58301C4.74447 3.96336 5.24806 4.19593 5.80527 4.19593H16.8166C17.3132 4.19593 17.7725 4.00697 18.1222 3.69688C18.4207 3.42797 18.6491 3.06458 18.7587 2.66001H22.2792C22.5123 2.6697 22.7058 2.70361 22.862 2.75691L22.8737 2.76176C23.0159 2.81505 23.1255 2.88531 23.2141 2.97494C23.2957 3.067 23.361 3.19056 23.4053 3.33349C23.4519 3.49822 23.4752 3.68234 23.4869 3.89795C23.4822 3.90522 23.4822 3.91249 23.4822 3.91975V9.04111H0.268115C0.118903 9.04111 0 9.16466 0 9.31971V31.7287C0 31.8813 0.118903 32.0073 0.268115 32.0073H31.6352C31.7821 32.0073 31.9033 31.8813 31.9033 31.7287V22.8329H33.7825L37.1421 25.9968C37.1934 26.0525 37.2633 26.0865 37.3449 26.0865C37.4918 26.0865 37.613 25.9629 37.613 25.8079V8.37732H37.6083H37.606ZM24.5616 25.178V28.3007C24.5616 28.4654 24.4381 28.5938 24.2819 28.5938H4.06602C3.91214 28.5938 3.78392 28.4654 3.78392 28.3007V12.7307C3.78392 12.5684 3.91214 12.4424 4.06602 12.4424H24.2819C24.4381 12.4424 24.5616 12.5684 24.5616 12.7307V25.1804V25.178Z"
     fill="#1C1C1C"
     id="path3"
     style="fill:#f8f8f8;fill-opacity:1" />
  <path
     d="M11.0697 20.9797H8.00155V19.4995H10.7037V18.4893H8.00155V17.2634H10.9368V16.2605H6.88013V21.9972H11.0697V20.9797Z"
     fill="#1C1C1C"
     id="path4"
     style="fill:#f8f8f8;fill-opacity:1" />
  <path
     d="M12.634 19.7513H13.865C14.1984 19.7513 14.4269 19.8119 14.5458 19.9282C14.667 20.0469 14.73 20.2431 14.73 20.5217V21.9995H15.8607V20.3764C15.8607 20.0396 15.8094 19.7901 15.7045 19.623C15.6019 19.4558 15.4294 19.3322 15.1846 19.2523C15.4504 19.153 15.6555 18.9882 15.7954 18.746C15.9376 18.5086 16.0076 18.2348 16.0076 17.9223C16.0076 17.6873 15.968 17.4668 15.8887 17.2609C15.8094 17.055 15.6905 16.8806 15.5436 16.7328C15.3944 16.5874 15.2149 16.4712 15.0074 16.3888C14.7999 16.304 14.5714 16.2628 14.3126 16.2628H11.5103V22.0019H12.634V19.7538V19.7513ZM12.634 17.2537H14.1238C14.4129 17.2537 14.6181 17.3263 14.7416 17.4693C14.8675 17.6122 14.9305 17.7963 14.9305 18.0216C14.9305 18.2469 14.8652 18.4238 14.7393 18.5667C14.6111 18.7121 14.3919 18.7823 14.0795 18.7823H12.634V17.2512V17.2537Z"
     fill="#1C1C1C"
     id="path5"
     style="fill:#f8f8f8;fill-opacity:1" />
</svg>

<svg xmlns="http://www.w3.org/2000/svg" width="38" height="32" fill="none"><path fill="#f8f8f8" d="M22.916 24.28H9.363a1.252 1.252 0 0 0-1.089-.65 1.25 1.25 0 0 0-1.086.65h-1.46a.383.383 0 0 0-.375.392v.552c0 .216.166.392.375.392h1.46c.221.388.622.65 1.086.65.464 0 .87-.262 1.09-.65h13.552a.383.383 0 0 0 .375-.392v-.552a.383.383 0 0 0-.375-.393ZM17.362 21.772a.145.145 0 0 0 .077.024c.023 0 .054-.01.075-.024l4.173-2.503a.163.163 0 0 0 .075-.138.163.163 0 0 0-.075-.138l-4.173-2.505a.158.158 0 0 0-.154 0 .166.166 0 0 0-.077.14v5.006c0 .06.03.111.077.14"/><path fill="#f8f8f8" d="M37.606 8.377a.295.295 0 0 0-.068-.191.269.269 0 0 0-.382-.02l-3.301 3.116H31.9v-1.97a.274.274 0 0 0-.268-.278h-7.074V3.876a3.449 3.449 0 0 0-.144-.923 1.985 1.985 0 0 0-.425-.748 1.83 1.83 0 0 0-.71-.48 2.992 2.992 0 0 0-.945-.184h-3.574a2.166 2.166 0 0 0-.636-1.037 1.97 1.97 0 0 0-1.306-.502H5.805c-.557 0-1.06.235-1.427.616a2.143 2.143 0 0 0 0 2.965c.366.38.87.613 1.427.613h11.012c.496 0 .956-.189 1.305-.5a2.17 2.17 0 0 0 .637-1.036h3.52c.233.01.427.044.583.097l.012.005a.917.917 0 0 1 .34.213.976.976 0 0 1 .191.358c.047.165.07.35.082.565-.005.007-.005.014-.005.022V9.04H.268A.272.272 0 0 0 0 9.32v22.409c0 .152.119.278.268.278h31.367a.275.275 0 0 0 .268-.278v-8.896h1.88l3.36 3.164c.05.055.12.09.202.09a.274.274 0 0 0 .268-.28V8.378h-.007ZM24.562 25.178v3.123a.284.284 0 0 1-.28.293H4.066a.287.287 0 0 1-.282-.293V12.73c0-.163.128-.289.282-.289h20.216c.156 0 .28.126.28.289v12.45-.003Z"/><path fill="#f8f8f8" d="M11.07 20.98H8.002V19.5h2.702v-1.01H8.002v-1.227h2.935V16.26H6.88v5.737h4.19V20.98ZM12.634 19.751h1.231c.333 0 .562.06.68.177.122.119.185.315.185.594V22h1.13v-1.624c0-.336-.05-.586-.155-.753-.103-.167-.276-.29-.52-.37.265-.1.47-.265.61-.507a1.57 1.57 0 0 0 .213-.824c0-.235-.04-.455-.12-.661a1.517 1.517 0 0 0-.88-.872 1.81 1.81 0 0 0-.695-.126H11.51v5.739h1.124V19.75Zm0-2.497h1.49c.289 0 .494.072.618.215a.805.805 0 0 1 .188.553.787.787 0 0 1-.19.545c-.129.145-.348.215-.66.215h-1.446v-1.53.002Z"/></svg>
